svg/sch4u/titration-graph.svg

<svg xmlns="http://www.w3.org/2000/svg" viewBox="0 0 686.731 498.347" xml:space="preserve"><text transform="translate(0 252.339)" font-family="'Concourse T3'" font-size="24">pH</text><text transform="translate(192.173 492.827)" font-family="'Concourse T3'" font-size="24">Volume of NaOH added (mL)</text><text transform="translate(202.707 20.16)" font-family="'Concourse T3'" font-size="24">Solution pH vs. titrant volume</text><path fill="none" stroke="#CCC" stroke-miterlimit="10" d="M618.231 39.019v390M563.231 39.019v390M508.231 39.019v390M453.231 39.019v390M398.231 39.019v390M343.231 39.019v390M288.231 39.019v390M233.231 39.019v390M178.231 39.019v390M123.231 39.019v390M618.731 403.519h-550M618.731 375.519h-550M618.731 347.519h-550M618.731 319.519h-550M618.731 291.519h-550M618.731 263.519h-550M618.731 235.519h-550M618.731 207.519h-550M618.731 179.519h-550M618.731 151.519h-550M618.731 123.519h-550M618.731 95.519h-550M618.731 67.519h-550M618.731 39.519h-550"/><path fill="#FFF" d="M348.731 216.019h137v16h-137z"/><path fill="none" stroke="#000" stroke-miterlimit="10" d="M68.231 39.019v389.5h550.5"/><text transform="translate(350.91 229.103)" font-family="'Concourse T3'" font-size="20">equivalence point</text><path fill="none" stroke="#000" stroke-miterlimit="10" d="M68.731 403.519h-10M68.731 375.519h-10M68.731 347.519h-10M68.731 319.519h-10M68.731 291.519h-10M68.731 263.519h-10M68.731 235.519h-10M68.731 207.519h-10M68.731 179.519h-10M68.731 151.519h-10M68.731 123.519h-10M68.731 95.519h-10M68.731 67.519h-10M68.731 39.519h-10"/><text transform="translate(36.365 43.916)" font-family="'Concourse T3'" font-size="16">14</text><text transform="translate(36.365 71.916)" font-family="'Concourse T3'" font-size="16">13</text><text transform="translate(36.366 99.915)" font-family="'Concourse T3'" font-size="16">12</text><text transform="translate(36.366 127.915)" font-family="'Concourse T3'" font-size="16">11</text><text transform="translate(36.366 155.915)" font-family="'Concourse T3'" font-size="16">10</text><text transform="translate(45.167 183.915)" font-family="'Concourse T3'" font-size="16">9</text><text transform="translate(45.167 211.915)" font-family="'Concourse T3'" font-size="16">8</text><text transform="translate(45.167 239.914)" font-family="'Concourse T3'" font-size="16">7</text><text transform="translate(45.168 267.914)" font-family="'Concourse T3'" font-size="16">6</text><text transform="translate(45.168 295.914)" font-family="'Concourse T3'" font-size="16">7</text><text transform="translate(45.169 323.914)" font-family="'Concourse T3'" font-size="16">4</text><text transform="translate(45.17 351.913)" font-family="'Concourse T3'" font-size="16">3</text><text transform="translate(45.17 379.913)" font-family="'Concourse T3'" font-size="16">2</text><text transform="translate(45.17 407.913)" font-family="'Concourse T3'" font-size="16">1</text><text transform="translate(118.902 455.88)" font-family="'Concourse T3'" font-size="16">5</text><text transform="translate(169.501 455.88)" font-family="'Concourse T3'" font-size="16">10</text><text transform="translate(224.5 455.88)" font-family="'Concourse T3'" font-size="16">15</text><text transform="translate(279.5 455.88)" font-family="'Concourse T3'" font-size="16">20</text><text transform="translate(334.5 455.88)" font-family="'Concourse T3'" font-size="16">25</text><text transform="translate(389.5 455.88)" font-family="'Concourse T3'" font-size="16">30</text><text transform="translate(444.499 455.88)" font-family="'Concourse T3'" font-size="16">35</text><text transform="translate(499.498 455.88)" font-family="'Concourse T3'" font-size="16">40</text><text transform="translate(554.498 455.88)" font-family="'Concourse T3'" font-size="16">45</text><text transform="translate(609.498 455.88)" font-family="'Concourse T3'" font-size="16">50</text><path fill="none" stroke="#000" stroke-miterlimit="10" d="M618.231 429.019v10M563.231 429.019v10M508.231 429.019v10M453.231 429.019v10M398.231 429.019v10M343.231 429.019v10M288.231 429.019v10M233.231 429.019v10M178.231 429.019v10M123.231 429.019v10"/><path fill="none" stroke="#000" stroke-width="2" stroke-miterlimit="10" d="M68.462 403.266s152.878-2.439 217.004-41.463S343.3 290.714 343.3 234.794s3.557-113.72 54.996-134.879S618.463 67.98 618.463 67.98"/><circle fill="#000" cx="343.194" cy="234.892" r="5.162"/></svg>

<svg xmlns="http://www.w3.org/2000/svg" viewBox="0 0 686.731 498.347" xml:space="preserve"><text transform="translate(0 252.339)" font-family="'Concourse T3'" font-size="24">pH</text><text transform="translate(192.173 492.827)" font-family="'Concourse T3'" font-size="24">Volume of NaOH added (mL)</text><text transform="translate(202.707 20.16)" font-family="'Concourse T3'" font-size="24">Solution pH vs. titrant volume</text><path fill="none" stroke="#CCC" stroke-miterlimit="10" d="M618.231 39.019v390m-55-390v390m-55-390v390m-55-390v390m-55-390v390m-55-390v390m-55-390v390m-55-390v390m-55-390v390m-55-390v390m495.5-25.5h-550m550-28h-550m550-28h-550m550-28h-550m550-28h-550m550-28h-550m550-28h-550m550-28h-550m550-28h-550m550-28h-550m550-28h-550m550-28h-550m550-28h-550m550-28h-550"/><path fill="#FFF" d="M348.731 216.019h137v16h-137z"/><path fill="none" stroke="#000" stroke-miterlimit="10" d="M68.231 39.019v389.5h550.5"/><text transform="translate(350.91 229.103)" font-family="'Concourse T3'" font-size="20">equivalence point</text><path fill="none" stroke="#000" stroke-miterlimit="10" d="M68.731 403.519h-10m10-28h-10m10-28h-10m10-28h-10m10-28h-10m10-28h-10m10-28h-10m10-28h-10m10-28h-10m10-28h-10m10-28h-10m10-28h-10m10-28h-10m10-28h-10"/><text transform="translate(36.365 43.916)" font-family="'Concourse T3'" font-size="16">14</text><text transform="translate(36.365 71.916)" font-family="'Concourse T3'" font-size="16">13</text><text transform="translate(36.366 99.915)" font-family="'Concourse T3'" font-size="16">12</text><text transform="translate(36.366 127.915)" font-family="'Concourse T3'" font-size="16">11</text><text transform="translate(36.366 155.915)" font-family="'Concourse T3'" font-size="16">10</text><text transform="translate(45.167 183.915)" font-family="'Concourse T3'" font-size="16">9</text><text transform="translate(45.167 211.915)" font-family="'Concourse T3'" font-size="16">8</text><text transform="translate(45.167 239.914)" font-family="'Concourse T3'" font-size="16">7</text><text transform="translate(45.168 267.914)" font-family="'Concourse T3'" font-size="16">6</text><text transform="translate(45.168 295.914)" font-family="'Concourse T3'" font-size="16">7</text><text transform="translate(45.169 323.914)" font-family="'Concourse T3'" font-size="16">4</text><text transform="translate(45.17 351.913)" font-family="'Concourse T3'" font-size="16">3</text><text transform="translate(45.17 379.913)" font-family="'Concourse T3'" font-size="16">2</text><text transform="translate(45.17 407.913)" font-family="'Concourse T3'" font-size="16">1</text><text transform="translate(118.902 455.88)" font-family="'Concourse T3'" font-size="16">5</text><text transform="translate(169.501 455.88)" font-family="'Concourse T3'" font-size="16">10</text><text transform="translate(224.5 455.88)" font-family="'Concourse T3'" font-size="16">15</text><text transform="translate(279.5 455.88)" font-family="'Concourse T3'" font-size="16">20</text><text transform="translate(334.5 455.88)" font-family="'Concourse T3'" font-size="16">25</text><text transform="translate(389.5 455.88)" font-family="'Concourse T3'" font-size="16">30</text><text transform="translate(444.499 455.88)" font-family="'Concourse T3'" font-size="16">35</text><text transform="translate(499.498 455.88)" font-family="'Concourse T3'" font-size="16">40</text><text transform="translate(554.498 455.88)" font-family="'Concourse T3'" font-size="16">45</text><text transform="translate(609.498 455.88)" font-family="'Concourse T3'" font-size="16">50</text><path fill="none" stroke="#000" stroke-miterlimit="10" d="M618.231 429.019v10m-55-10v10m-55-10v10m-55-10v10m-55-10v10m-55-10v10m-55-10v10m-55-10v10m-55-10v10m-55-10v10"/><path fill="none" stroke="#000" stroke-width="2" stroke-miterlimit="10" d="M68.462 403.266s152.878-2.439 217.004-41.463S343.3 290.714 343.3 234.794s3.557-113.72 54.996-134.879S618.463 67.98 618.463 67.98"/><circle cx="343.194" cy="234.892" r="5.162"/></svg>
